Origami/24x24/apps/mate-inhibit-applet.svg

<svg width="24" height="24" version="1.1" viewBox="0 0 48 48" xmlns="http://www.w3.org/2000/svg">
 <rect transform="matrix(0,-1,-1,0,0,0)" x="-43" y="-36" width="32" height="24" rx="2" ry="2" style="opacity:.2"/>
 <rect transform="matrix(0,-1,-1,0,0,0)" x="-42" y="-36" width="32" height="24" rx="2" ry="2" style="fill:#8e8e8e"/>
 <rect transform="matrix(0,-1,-1,0,0,0)" x="-39" y="-44" width="32" height="40" rx="2" ry="2" style="opacity:.2"/>
 <rect transform="matrix(0,-1,-1,0,0,0)" x="-38" y="-44" width="32" height="40" rx="2" ry="2" style="fill:#4f4f4f"/>
 <rect transform="matrix(0,-1,-1,0,0,0)" x="-34" y="-40" width="24" height="32" rx="0" ry="0" style="opacity:.4"/>
 <path d="m6 6c-1.108 0-2 0.892-2 2v1c0-1.108 0.892-2 2-2h36c1.108 0 2 0.892 2 2v-1c0-1.108-0.892-2-2-2z" style="fill:#ffffff;opacity:.1"/>
 <rect x="8" y="34" width="32" height="1" style="fill:#ffffff;opacity:.1"/>
 <circle cx="34" cy="34" r="12" style="fill:#3593cd"/>
 <path d="m34 30c-1.551 0.015-3.112 0.369-4.463 1.135-0.538 0.351-1.185 0.804-1.672 1.26-0.766 0.751-1.422 1.626-1.865 2.606 1.215 2.68 3.886 4.645 6.824 4.935 1.928 0.218 3.945-0.115 5.639-1.069 0.538-0.351 1.185-0.804 1.672-1.26 0.766-0.751 1.422-1.626 1.865-2.606-1.215-2.68-3.886-4.645-6.824-4.935-0.39-0.045-0.783-0.066-1.176-0.066zm0 2c1.607-0.035 3.03 1.402 3 3.001 0.051 1.767-1.709 3.292-3.449 2.962-1.758-0.207-2.992-2.178-2.414-3.849 0.369-1.229 1.576-2.129 2.863-2.114zm0 2.001a1 1.0002 0 0 0 -1 1 1 1.0002 0 0 0 1 1 1 1.0002 0 0 0 1 -1 1 1.0002 0 0 0 -1 -0.999z" style="fill:#ffffff"/>
</svg>

<svg xmlns="http://www.w3.org/2000/svg" width="24" height="24" version="1.1" viewBox="0 0 48 48">
 <rect style="opacity:0.2" width="32" height="24" x="-43" y="-36" rx="2" ry="2" transform="matrix(0,-1,-1,0,0,0)"/>
 <rect style="fill:#8e8e8e" width="32" height="24" x="-42" y="-36" rx="2" ry="2" transform="matrix(0,-1,-1,0,0,0)"/>
 <rect style="opacity:0.2" width="32" height="40" x="-39" y="-44" rx="2" ry="2" transform="matrix(0,-1,-1,0,0,0)"/>
 <rect style="fill:#4f4f4f" width="32" height="40" x="-38" y="-44" rx="2" ry="2" transform="matrix(0,-1,-1,0,0,0)"/>
 <rect style="opacity:0.4" width="24" height="32" x="-34" y="-40" rx="0" ry="0" transform="matrix(0,-1,-1,0,0,0)"/>
 <path style="opacity:0.1;fill:#ffffff" d="M 6,6 C 4.892,6 4,6.892 4,8 V 9 C 4,7.892 4.892,7 6,7 H 42 C 43.108,7 44,7.892 44,9 V 8 C 44,6.892 43.108,6 42,6 Z"/>
 <rect style="opacity:0.1;fill:#ffffff" width="32" height="1" x="8" y="34"/>
 <circle style="fill:#3593cd" cx="34" cy="34" r="12"/>
 <path style="fill:#ffffff" d="M 34,30 C 32.449,30.015 30.888,30.369 29.537,31.135 28.999,31.486 28.352,31.939 27.865,32.395 27.099,33.146 26.443,34.021 26,35.001 27.215,37.681 29.886,39.646 32.824,39.936 34.752,40.154 36.769,39.821 38.463,38.867 39.001,38.516 39.648,38.063 40.135,37.607 40.901,36.856 41.557,35.981 42,35.001 40.785,32.321 38.114,30.356 35.176,30.066 34.786,30.021 34.393,30 34,30 Z M 34,32 C 35.607,31.965 37.03,33.402 37,35.001 37.051,36.768 35.291,38.293 33.551,37.963 31.793,37.756 30.559,35.785 31.137,34.114 31.506,32.885 32.713,31.985 34,32 Z M 34,34.001 A 1,1.0002 0 0 0 33,35.001 1,1.0002 0 0 0 34,36.001 1,1.0002 0 0 0 35,35.001 1,1.0002 0 0 0 34,34.002 Z"/>
</svg>
